files/resources/svgs/general/m-window.svg

<svg width="20" height="20" viewBox="0 0 20 20" fill="none" xmlns="http://www.w3.org/2000/svg">
<path fill-rule="evenodd" clip-rule="evenodd" d="M3.25 3C2.00736 3 1 4.00736 1 5.25V14.75C1 15.9926 2.00736 17 3.25 17H16.75C17.9926 17 19 15.9926 19 14.75V5.25C19 4.00736 17.9926 3 16.75 3H3.25ZM2.5 9V14.75C2.5 15.1642 2.83579 15.5 3.25 15.5H16.75C17.1642 15.5 17.5 15.1642 17.5 14.75V9H2.5ZM4 5.25C3.58579 5.25 3.25 5.58579 3.25 6V6.01C3.25 6.42421 3.58579 6.76 4 6.76H4.01C4.42421 6.76 4.76 6.42421 4.76 6.01V6C4.76 5.58579 4.42421 5.25 4.01 5.25H4ZM6.25 6C6.25 5.58579 6.58579 5.25 7 5.25H7.01C7.42421 5.25 7.76 5.58579 7.76 6V6.01C7.76 6.42421 7.42421 6.76 7.01 6.76H7C6.58579 6.76 6.25 6.42421 6.25 6.01V6ZM10 5.25C9.58579 5.25 9.25 5.58579 9.25 6V6.01C9.25 6.42421 9.58579 6.76 10 6.76H10.01C10.4242 6.76 10.76 6.42421 10.76 6.01V6C10.76 5.58579 10.4242 5.25 10.01 5.25H10Z" fill="#0F172A"/>
</svg>

<svg xmlns="http://www.w3.org/2000/svg" viewBox="0 0 20 20" fill="currentColor" aria-hidden="true">
  <path fill-rule="evenodd" d="M3.25 3A2.25 2.25 0 001 5.25v9.5A2.25 2.25 0 003.25 17h13.5A2.25 2.25 0 0019 14.75v-9.5A2.25 2.25 0 0016.75 3H3.25zM2.5 9v5.75c0 .414.336.75.75.75h13.5a.75.75 0 00.75-.75V9h-15zM4 5.25a.75.75 0 00-.75.75v.01c0 .414.336.75.75.75h.01a.75.75 0 00.75-.75V6a.75.75 0 00-.75-.75H4zM6.25 6A.75.75 0 017 5.25h.01a.75.75 0 01.75.75v.01a.75.75 0 01-.75.75H7a.75.75 0 01-.75-.75V6zM10 5.25a.75.75 0 00-.75.75v.01c0 .414.336.75.75.75h.01a.75.75 0 00.75-.75V6a.75.75 0 00-.75-.75H10z" clip-rule="evenodd"/>
</svg>
